X:1
T:Christmas Lullaby
T:John Rutter
%%score 1 2
L:1/8
M:3/4
K:F
V:1 treble+8 nm="Soprano Rec." snm="S. Rec."
V:2 treble nm="Alto Recorder" snm="A. Rec."
V:1
 z6 | z6 | z6 | z6 | z6 | z6 | z6 | z6 | z6 | z6 | z6 | z6 | z6 | z6 | z6 | z6 | z6 | z6 | z6 | %19
 z6 |!pp! A2 A3 .c | B2 B4 | G2 G3 .B | A2 A4 | F2 G2 A2 | AB G3 F | E2 F2 G2 | (A4 B2) | %28
!mf! c2 c3 _e | d2 d4 | B2 B3 d | c2 c4 |!p! A2 A3 c | B2 A2 G2 | F2 D2 E2 |1 F6 | z6 | z6 | z6 | %39
 z6 :|2 F6 | z6 | z6 | z6 | z6 ||!p! F2 C2 F2 | G2 F3 G | A2 c2 A2 | GF G4 | F2 C2 F2 | G2 F3 G | %51
 A2 c2 A2 | G6 |!mf! c2 c2 c2 | cd B3 A | B2 B2 B2 | Bc A3!mp! G | F2 G2 A2 | G2 c3 G | F2 D2 E2 | %60
 C6 | z6 |!p! B2 B3 d | c2 (c4 | c2) A2 c2 | f4 e2 | d3 c B2 | c4 B2 | (A4 B2) |!f! c2 c3 _e | %70
 d2 d4 | B2 B3 d | c2 c4 |!p! A2 A3 c | B2 A2 G2 | F2 D2 E2 |!pp! (F6 | !fermata!F6) |] %78
V:2
 z6 | z6 | z6 | z6 | z6 | z6 | z6 | z6 | z6 | z6 | z6 | z6 | z6 | z6 | z6 | z6 | z6 | z6 | z6 | %19
 z6 |!pp! f2 f3 .a | g2 g2 (f2 | e2) e3 .g | g2 uf4 | f2 e2 fe | dd d2 d2 | d2 d2 c2 | %27
 (c2 f2) (f!mf!e) | fb ag f2 | (f3 .a) gf | fa gf e2 | (e3 .g) fe |!p! f2 f3 .e | d2 d2 d2 | %34
 d2 B2 c2 |1 c6 | z6 | z6 | z6 | z6 :|2 c6 | z6 | z6 | z6 | z6 ||!p! c2 B2 c2 | d2 d3 .e | %47
 g2 f2 ue2 | d2 (d2 e2) | c2 B2 c2 | d2 d2 c2 | f2 f2 e2 | (d4 c2) |!mf! c2 d2 e2 | f2 f3 .f | %55
 f2 e2 d2 | d2 d2!mp! ^c2 | d2 d2 d2 | e2 d2 c2 | c2 dc =B2 | c6 | z6 |!p! d2 d3 .f | e2 (e4 | %64
 f2) f2 g2 | (a2 b2) c'2 | (c'2 b) a g2 | g4 g2 | (g2 f2) (fe) |!f! fb ag f2 | (f3 .a) gf | %71
 fa gf e2 | (e3 .g) fe |!p! f2 f3 .e | d2 d2 d2 | d2 B2 c2 |!pp! (c6 | !fermata!c6) |] %78

